X:1
T:the Virginia Reel
N:Named for the town of Virginia, County Clare, Ireland
Z:2011 John Chambers <jc:trillian.mit.edu>
S:Printed MS of unknown origin
F:http://german.lss.wisc.edu/homes/agng/ng-reels.abc
F:http://www.ibiblio.org/fiddlers/V.htm
F:http://www.novasession.org/Bog%20Kit/bwreels.abc
M:C|
L:1/8
R:Reel
K:D
|:\
"G"DBBA ~B3A | BAdB "(A7)"AFEF | "D"DF~F2 A3B | AFBF "D7"AFEF |\
"G"DBBA ~B3A | BAdB "(A7)"ABde | "D"f3{gf}e defe | "G"dBAF "Em"BE~E2 :|
|:\
"D"defe ~d3A | "D"BAFA DAFA | "D"defe defg | "(Em)"a2bf "A"afeg |\
"Bm"fedf efdB | "D"AF~F2 "A7"ABde | "G"fgfe defe | "D"dBAF "Em"BE~E2 :|]
